storage/app/icons/phosphoricons/regular/boot.svg

<svg xmlns="http://www.w3.org/2000/svg" fill="currentColor" viewBox="0 0 256 256"><path d="M192 112h-32V56a16 16 0 0 0-16-16H32a8 8 0 0 0-7.47 10.86c11.06 28.84 8.76 83.71-.22 114.93A8.3 8.3 0 0 0 24 168v32a16 16 0 0 0 16 16h26.11a16 16 0 0 0 7.16-1.69L85.89 208h16.22l12.62 6.31a16 16 0 0 0 7.16 1.69h28.22a16 16 0 0 0 7.16-1.69l12.62-6.31h16.22l12.62 6.31a16 16 0 0 0 7.16 1.69H232a16 16 0 0 0 16-16v-32a56.06 56.06 0 0 0-56-56M42.86 56H144v24h-32a8 8 0 0 0 0 16h32v16h-32a8 8 0 0 0 0 16h80a40.07 40.07 0 0 1 39.2 32H42.25c6.75-30.84 8.16-74.17.61-104M232 200h-26.11l-12.62-6.31a16 16 0 0 0-7.16-1.69h-16.22a16 16 0 0 0-7.16 1.69L150.11 200h-28.22l-12.62-6.31a16 16 0 0 0-7.16-1.69H85.89a16 16 0 0 0-7.16 1.69L66.11 200H40v-24h192Z"/></svg>

<svg xmlns="http://www.w3.org/2000/svg" viewBox="0 0 256 256" fill="currentColor"><path d="M192,112H160V56a16,16,0,0,0-16-16H32a8,8,0,0,0-7.47,10.86c11.06,28.84,8.76,83.71-.22,114.93A8.25,8.25,0,0,0,24,168v32a16,16,0,0,0,16,16H66.11a16,16,0,0,0,7.16-1.69L85.89,208h16.22l12.62,6.31a16,16,0,0,0,7.16,1.69h28.22a16,16,0,0,0,7.16-1.69L169.89,208h16.22l12.62,6.31a16,16,0,0,0,7.16,1.69H232a16,16,0,0,0,16-16V168A56.06,56.06,0,0,0,192,112ZM42.86,56H144V80H112a8,8,0,0,0,0,16h32v16H112a8,8,0,0,0,0,16h80a40.07,40.07,0,0,1,39.2,32H42.25C49,129.16,50.41,85.83,42.86,56ZM232,200H205.89l-12.62-6.31a16,16,0,0,0-7.16-1.69H169.89a16,16,0,0,0-7.16,1.69L150.11,200H121.89l-12.62-6.31a16,16,0,0,0-7.16-1.69H85.89a16,16,0,0,0-7.16,1.69L66.11,200H40V176H232Z"/></svg>
